X:1
T:Will You Come?
T:Will You Come?
T:C. L. Childress
T:C. L. Childress, 1919
T:Public Domain Courtesy of the Cyber Hymnal™
C:C. L. Childress
Z:Public Domain
Z:Courtesy of the Cyber Hymnal™
%%score ( 1 2 ) ( 3 4 )
L:1/8
Q:1/4=90
M:3/4
K:Db
V:1 treble 
V:2 treble 
V:3 bass 
V:4 bass 
V:1
 [DF]>[EG] | [FA]3 [DF] [Fd]>[Fc] | [GB]2 [FA]2 [EG]>[DF] | [CG]3 [Ec] [GB]>[GA] | %4
w: 1.~Will you|come to Christ, dear|bro- ther, Tho’ in|sin you’ve strayed a-|
w: 2.~List, O|sin- ner, Christ is|speak- ing, “In My|Fa- ther’s house there’s|
w: 3.~Hark! He|still is sweet- ly|call- ing, Sin- ner,|come, oh! come to-|
 [FA]4 [DF]>[FA] | [GB]3 [Gd] [Gd]>[GB] | [FA]2 [DF]2 [Dd]>[Dd] | [Ec]4 [Gc]>[Ge] | [Fd]4 || %9
w: far? You will|find there can no|o- ther Save you|now as you|are.|
w: room!” Will you|come, ad- mit- tance|seek- ing, Leave the|world and its|gloom?|
w: day; Tar- ry|not, in weak- ness|fall- ing, He’ll sus-|tain all the|way!|
"^Refrain" [FA]>[FA] | [Fd]3 [Af] [Fd]>[GB] | [FA]2 [DF]2 E>[DF] | [CG]4 [GB]>[GB] | %13
w: ||||
w: Will you|come to Him, dear|bro- ther, Will you|come, will you|
w: ||||
 [FA]4 [FA]>[FA] | [Af]3 [Ge] [Fd]>[GB] | [FA]2 [DF]2 [Ad]>[GB] | [FA]4 [Gc]>[Ge] | %17
w: ||||
w: come? He can|save, there is no|o- ther— Will you|come, will you|
w: ||||
 !fermata![Fd]4 |] %18
w: |
w: come?|
w: |
V:2
 x2 | x6 | x6 | x6 | x6 | x6 | x6 | x6 | x4 || x2 | x6 | x4 E3/2 x/ | x6 | x6 | x6 | x6 | x6 | %17
 x4 |] %18
V:3
 [D,A,]>[D,A,] | [D,D]3 [D,A,] [D,A,]>[D,A,] | [D,D]2 [D,D]2 [C,A,]>[D,A,] | %3
 [E,A,]3 [E,A,] [A,,C]>[A,,C] | [D,D]4 [D,A,]>[D,D] | [G,D]3 [G,B,] [G,B,]>[G,D] | %6
 [D,D]2 [D,A,]2 [F,A,]>[F,A,] | A,4 [A,,A,]>[A,,A,] | [D,A,]4 || [D,D]>[D,D] | %10
 [D,A,]3 [D,D] [D,A,]>[D,D] | [D,D]2 [D,A,]2 [C,A,]>[D,A,] | [E,A,]4 [A,,C]>[A,,C] | %13
 [D,D]4 [D,D]>[D,D] | [D,D]3 [D,D] [D,A,]>[D,D] | [D,D]2 [D,A,]2 [F,D]>[G,D] | %16
 [A,D]4 [A,,A,]>[A,,A,] | !fermata![D,A,]4 |] %18
V:4
 x2 | x6 | x6 | x6 | x6 | x6 | x6 | A,4 x2 | x4 || x2 | x6 | x6 | x6 | x6 | x6 | x6 | x6 | x4 |] %18

